X: 23368
T: Leitrim Thrush, The
R: reel
M: 4/4
K: Dmajor
B3c dBAc|B2dB FGAF|BABc defg|afba fdec|
BABc dBA2|BdBA FEFD|BABc defb|agba fddc||
Bafd a2fd|adfd cdef|Bdfd bdfd|abag fddc|
Bbfd adfd|adfd cde2|abba fedB|A2ba fedA||

